src/assets/modals/close.svg

<svg width="19" height="20" viewBox="0 0 19 20" fill="none" xmlns="http://www.w3.org/2000/svg">
<path d="M10.3839 10.8839C10.872 10.3957 10.872 9.60427 10.3839 9.11612L2.42893 1.16117C1.94078 0.67301 1.14932 0.67301 0.661165 1.16117C0.17301 1.64932 0.17301 2.44078 0.661165 2.92893L7.73223 10L0.661165 17.0711C0.17301 17.5592 0.17301 18.3507 0.661165 18.8388C1.14932 19.327 1.94078 19.327 2.42893 18.8388L10.3839 10.8839ZM9 11.25H9.5V8.75H9V11.25Z" fill="#2C4CBC"/>
<path d="M8.61612 9.11612C8.12796 9.60427 8.12796 10.3957 8.61612 10.8839L16.5711 18.8388C17.0592 19.327 17.8507 19.327 18.3388 18.8388C18.827 18.3507 18.827 17.5592 18.3388 17.0711L11.2678 10L18.3388 2.92893C18.827 2.44078 18.827 1.64932 18.3388 1.16117C17.8507 0.67301 17.0592 0.67301 16.5711 1.16117L8.61612 9.11612ZM10 8.75H9.5V11.25H10V8.75Z" fill="#2C4CBC"/>
</svg>

<svg xmlns="http://www.w3.org/2000/svg" width="19" height="20" fill="#2c4cbc" xmlns:v="https://vecta.io/nano"><path d="M10.384 10.884a1.25 1.25 0 0 0 0-1.768L2.429 1.161A1.25 1.25 0 0 0 .661 2.929L7.732 10 .661 17.071a1.25 1.25 0 0 0 0 1.768 1.25 1.25 0 0 0 1.768 0l7.955-7.955zM9 11.25h.5v-2.5H9v2.5z"/><path d="M8.616 9.116a1.25 1.25 0 0 0 0 1.768l7.955 7.955a1.25 1.25 0 0 0 1.768-1.768L11.268 10l7.071-7.071a1.25 1.25 0 0 0-1.768-1.768L8.616 9.116zM10 8.75h-.5v2.5h.5v-2.5z"/></svg>
